X: 41
T:Cauliflower Jig, The
M:6/8
L:1/8
R:Jig
S:Stanford/Petrie – Complete Collection, No. 963 (1905)
Z:AK/Fiddler’s Companion
K: Ddor
A2d cAG|EDE GED|EDE G2A|G2A GED|A2d cAG|
EDE GED|Add dcd|edd d3||faf ege|(d/e/f)d cAG|
EDE G2A|G2A GED|faf ege|d/e/fd cAG|Add dcd|edd d3||
F: http://www.ibiblio.org/fiddlers/CAT_CAZ.htm

